build/img/svg/fb.svg

<svg width="15" height="14" viewBox="0 0 15 14" fill="none" xmlns="http://www.w3.org/2000/svg">
<path fill-rule="evenodd" clip-rule="evenodd" d="M0.5 7.03908C0.5 10.5192 3.02758 13.4132 6.33333 14V8.94425H4.58333V7H6.33333V5.44425C6.33333 3.69425 7.46092 2.72242 9.05575 2.72242C9.56092 2.72242 10.1058 2.8 10.6109 2.87758V4.66667H9.71667C8.86092 4.66667 8.66667 5.09425 8.66667 5.63908V7H10.5333L10.2224 8.94425H8.66667V14C11.9724 13.4132 14.5 10.5198 14.5 7.03908C14.5 3.1675 11.35 0 7.5 0C3.65 0 0.5 3.1675 0.5 7.03908Z" fill="white"/>
</svg>

<svg width="15" height="14" viewBox="0 0 15 14" fill="none" xmlns="http://www.w3.org/2000/svg"><path fill-rule="evenodd" clip-rule="evenodd" d="M.5 7.04c0 3.48 2.528 6.373 5.833 6.96V8.944h-1.75V7h1.75V5.444c0-1.75 1.128-2.722 2.723-2.722.505 0 1.05.078 1.555.156v1.789h-.894c-.856 0-1.05.427-1.05.972V7h1.866l-.31 1.944H8.666V14c3.305-.587 5.833-3.48 5.833-6.96 0-3.873-3.15-7.04-7-7.04s-7 3.167-7 7.04z" fill="#fff"/></svg>
